SVG_Azure_Grouped/Data/Azure Synapse Analytics Dedicated SQL Pool.svg

<?xml version="1.0" encoding="UTF-8" standalone="no"?>
<!-- Generated by Microsoft Visio, SVG Export Azure Synapse Analytics Dedicated SQL Pool.svg Page-1 -->

<svg
   xmlns:dc="http://purl.org/dc/elements/1.1/"
   xmlns:cc="http://creativecommons.org/ns#"
   xmlns:rdf="http://www.w3.org/1999/02/22-rdf-syntax-ns#"
   xmlns:svg="http://www.w3.org/2000/svg"
   xmlns="http://www.w3.org/2000/svg"
   xmlns:sodipodi="http://sodipodi.sourceforge.net/DTD/sodipodi-0.dtd"
   xmlns:inkscape="http://www.inkscape.org/namespaces/inkscape"
   width="0.74798977in"
   height="0.78738689in"
   viewBox="0 0 53.855232 56.691997"
   xml:space="preserve"
   class="st6"
   version="1.1"
   id="svg94"
   sodipodi:docname="Azure Synapse Analytics Dedicated SQL Pool.svg"
   style="font-size:12px;overflow:visible;color-interpolation-filters:sRGB;fill:none;fill-rule:evenodd;stroke-linecap:square;stroke-miterlimit:3"
   inkscape:version="0.92.5 (2060ec1f9f, 2020-04-08)"><metadata
   id="metadata98"><rdf:RDF><cc:Work
       rdf:about=""><dc:format>image/svg+xml</dc:format><dc:type
         rdf:resource="http://purl.org/dc/dcmitype/StillImage" /></cc:Work></rdf:RDF></metadata><sodipodi:namedview
   pagecolor="#ffffff"
   bordercolor="#666666"
   borderopacity="1"
   objecttolerance="10"
   gridtolerance="10"
   guidetolerance="10"
   inkscape:pageopacity="0"
   inkscape:pageshadow="2"
   inkscape:window-width="640"
   inkscape:window-height="480"
   id="namedview96"
   showgrid="false"
   inkscape:zoom="1.8365233"
   inkscape:cx="35.905404"
   inkscape:cy="18.900351"
   inkscape:window-x="0"
   inkscape:window-y="0"
   inkscape:window-maximized="0"
   inkscape:current-layer="svg94" />
	<style
   type="text/css"
   id="style2">
	<![CDATA[
		.st1 {fill:#0078d4;stroke:none;stroke-linecap:butt;stroke-width:0.749999}
		.st2 {fill:url(#grad0-12);stroke:none;stroke-linecap:butt;stroke-width:0.749999}
		.st3 {fill:#50e6ff;stroke:none;stroke-linecap:butt;stroke-width:0.749999}
		.st4 {fill:url(#grad0-20);stroke:none;stroke-linecap:butt;stroke-width:0.749999}
		.st5 {fill:#000000;stroke:none;stroke-linecap:butt;stroke-width:0.749999}
		.st6 {fill:none;fill-rule:evenodd;font-size:12px;overflow:visible;stroke-linecap:square;stroke-miterlimit:3}
	]]>
	</style>

	<defs
   id="Patterns_And_Gradients">
		<linearGradient
   id="grad0-12"
   x1="0"
   y1="142.4672"
   x2="23.205926"
   y2="142.4672"
   gradientTransform="scale(1.7189575,0.58174796)"
   gradientUnits="userSpaceOnUse">
			<stop
   offset="0.2"
   stop-color="#005ba1"
   stop-opacity="1"
   id="stop4" />
			<stop
   offset="1"
   stop-color="#0078d4"
   stop-opacity="1"
   id="stop6" />
		</linearGradient>
		<linearGradient
   id="grad0-20"
   x1="-1.1893799"
   y1="91.640301"
   x2="20.469783"
   y2="91.640301"
   gradientTransform="scale(1.1592701,0.86261174)"
   gradientUnits="userSpaceOnUse">
			<stop
   offset="0"
   stop-color="#198ab3"
   stop-opacity="1"
   id="stop9" />
			<stop
   offset="0.17"
   stop-color="#32bedd"
   stop-opacity="1"
   id="stop11" />
			<stop
   offset="0.5"
   stop-color="#50e6ff"
   stop-opacity="1"
   id="stop13" />
			<stop
   offset="0.5"
   stop-color="#4fe4fd"
   stop-opacity="1"
   id="stop15" />
			<stop
   offset="0.5"
   stop-color="#4bddf8"
   stop-opacity="1"
   id="stop17" />
			<stop
   offset="0.5"
   stop-color="#44d2ee"
   stop-opacity="1"
   id="stop19" />
			<stop
   offset="0.5"
   stop-color="#3ac1e0"
   stop-opacity="1"
   id="stop21" />
			<stop
   offset="0.5"
   stop-color="#2dabce"
   stop-opacity="1"
   id="stop23" />
			<stop
   offset="0.5"
   stop-color="#1d90b8"
   stop-opacity="1"
   id="stop25" />
			<stop
   offset="0.5"
   stop-color="#198ab3"
   stop-opacity="1"
   id="stop27" />
			<stop
   offset="0.66"
   stop-color="#32bedd"
   stop-opacity="1"
   id="stop29" />
			<stop
   offset="0.975"
   stop-color="#50e6ff"
   stop-opacity="1"
   id="stop31" />
		</linearGradient>
	</defs>
	<g
   id="g92"
   transform="translate(-5.3859292,-5.6723)">
		<title
   id="title35">Page-1</title>
		<g
   id="group19607-1"
   transform="translate(5.38583,-34.0157)">
			<title
   id="title37">Azure Synapse Analytics Dedicated SQL Pool.19607</title>
			<g
   id="group19608-2">
				<title
   id="title39">Page-1</title>
				<g
   id="group19609-3">
					<title
   id="title41">Sheet.19609</title>
					<g
   id="group19610-4"
   transform="translate(0,-11.5278)">
						<title
   id="title43">Sheet.19610</title>
						<g
   id="group19611-5">
							<title
   id="title45">Sheet.19611</title>
							<g
   id="shape19612-6">
								<title
   id="title47">Sheet.19612</title>
								<path
   d="M 19.94,51.22 0,62.48 v 22.5 L 19.94,96.38 39.89,85.11 V 62.53 Z M 36.19,82.75 19.94,92.04 3.68,82.86 V 64.72 l 16.26,-9.29 16.25,9.31 z"
   class="st1"
   id="path49"
   inkscape:connector-curvature="0"
   style="fill:#0078d4;stroke:none;stroke-width:0.74999899;stroke-linecap:butt" />
							</g>
						</g>
						<g
   id="group19613-8"
   transform="translate(0,-31.6642)">
							<title
   id="title53">Sheet.19613</title>
							<g
   id="shape19614-9">
								<title
   id="title55">Sheet.19614</title>
								<path
   d="M 19.94,82.88 0,94.14 l 3.68,2.24 16.26,-9.29 16.25,9.29 3.7,-2.24 z"
   class="st2"
   id="path57"
   inkscape:connector-curvature="0"
   style="fill:url(#grad0-12);stroke:none;stroke-width:0.74999899;stroke-linecap:butt" />
							</g>
						</g>
						<g
   id="group19615-13"
   transform="translate(6.25658,-5.64284)">
							<title
   id="title61">Sheet.19615</title>
							<g
   id="shape19616-14">
								<title
   id="title63">Sheet.19616</title>
								<path
   d="M 23.19,83.14 A 1.85437,1.83161 -180 0 0 22.37,82.42 14.8222,14.6402 -180 0 0 10.99,74.02 L 27.44,64.63 23.61,62.47 4.88,73.17 a 1.90517,1.88178 -180 0 0 0.96,3.51 1.73752,1.71619 -180 0 0 0.22,-0.06 l 0.32,1.31 a 10.9713,10.8366 0 0 1 12.29,5.62 L 0,94.21 3.81,96.38 22.49,85.71 a 1.85183,1.8291 -180 0 0 0.61,-0.59 l 0.19,-0.05 c -0.02,-0.06 -0.04,-0.14 -0.06,-0.21 a 1.86707,1.84415 -180 0 0 -0.04,-1.72 z"
   class="st3"
   id="path65"
   inkscape:connector-curvature="0"
   style="fill:#50e6ff;stroke:none;stroke-width:0.74999899;stroke-linecap:butt" />
							</g>
						</g>
						<g
   id="group19617-16"
   transform="translate(8.76765,-14.6265)">
							<title
   id="title69">Sheet.19617</title>
							<g
   id="shape19618-17">
								<title
   id="title71">Sheet.19618</title>
								<path
   d="m 19.02,88.45 a 4.69941,4.64173 -180 1 0 4.71,4.65 4.69941,4.64173 -180 0 0 -4.71,-4.65 z m -15.7,-9.4 a 4.69941,4.64173 -180 1 0 4.7,4.65 4.69941,4.64173 -180 0 0 -4.7,-4.65 z"
   class="st4"
   id="path73"
   inkscape:connector-curvature="0"
   style="fill:url(#grad0-20);stroke:none;stroke-width:0.74999899;stroke-linecap:butt" />
							</g>
						</g>
					</g>
					<g
   id="group19619-21"
   transform="translate(30.0954)">
						<title
   id="title78">Sheet.19619</title>
						<g
   id="group19620-22">
							<title
   id="title80">Sheet.19620</title>
							<g
   id="shape19621-23">
								<title
   id="title82">Sheet.19621</title>
								<path
   d="m 16.34,81.71 c 0.11,-0.01 0.23,-0.01 0.34,-0.01 0.1,0 0.22,0 0.34,0 0.29,0 0.65,0.01 1.1,0.04 0.44,0.03 0.91,0.08 1.41,0.16 0.5,0.08 1,0.19 1.51,0.33 0.5,0.15 0.95,0.33 1.36,0.54 0.39,0.21 0.72,0.48 0.98,0.79 0.25,0.32 0.38,0.68 0.38,1.08 v 8.81 c 0,0.4 -0.11,0.75 -0.37,1.05 -0.25,0.3 -0.57,0.56 -0.97,0.78 -0.41,0.22 -0.86,0.4 -1.35,0.54 -0.5,0.14 -0.99,0.25 -1.49,0.34 -0.51,0.09 -0.97,0.14 -1.41,0.18 -0.44,0.02 -0.8,0.03 -1.09,0.04 -0.28,0 -0.65,-0.02 -1.09,-0.04 -0.44,-0.04 -0.91,-0.1 -1.4,-0.18 -0.49,-0.09 -1,-0.19 -1.49,-0.33 -0.5,-0.14 -0.95,-0.32 -1.34,-0.54 -0.41,-0.22 -0.74,-0.48 -0.98,-0.78 -0.25,-0.3 -0.38,-0.65 -0.39,-1.06 v -8.81 c 0,-0.33 0.08,-0.62 0.23,-0.88 0.15,-0.26 0.34,-0.48 0.58,-0.68 0.26,-0.19 0.54,-0.36 0.85,-0.5 0.31,-0.15 0.63,-0.26 0.96,-0.36 0.33,-0.09 0.66,-0.17 0.97,-0.23 0.32,-0.06 0.61,-0.1 0.87,-0.14 V 78.78 H 2.97 v 8.8 H 1.48 v -8.8 H 0 V 77.3 l 8.91,-4.39 8.91,4.39 v 1.48 H 16.34 Z M 3.28,77.3 H 14.55 L 8.91,74.52 Z m 19,16.15 v -6.89 c -0.37,0.2 -0.78,0.35 -1.21,0.49 -0.43,0.13 -0.87,0.23 -1.32,0.32 -0.45,0.08 -0.91,0.13 -1.35,0.15 -0.46,0.04 -0.9,0.05 -1.32,0.06 -0.41,0 -0.85,-0.02 -1.31,-0.06 -0.46,-0.02 -0.91,-0.08 -1.35,-0.15 -0.45,-0.08 -0.9,-0.18 -1.33,-0.31 -0.43,-0.13 -0.84,-0.29 -1.2,-0.5 v 6.89 c 0,0.08 0.03,0.16 0.1,0.23 0.09,0.08 0.16,0.14 0.23,0.18 0.29,0.2 0.64,0.38 1.04,0.52 0.41,0.13 0.85,0.24 1.31,0.31 0.45,0.08 0.89,0.14 1.33,0.17 0.43,0.04 0.82,0.05 1.18,0.05 0.34,0 0.74,-0.02 1.19,-0.05 0.44,-0.03 0.88,-0.08 1.33,-0.16 0.45,-0.07 0.88,-0.19 1.28,-0.32 0.42,-0.15 0.77,-0.32 1.06,-0.52 0.06,-0.04 0.14,-0.1 0.21,-0.18 0.08,-0.07 0.12,-0.15 0.13,-0.23 z m -5.2,-7.34 c 0.34,0 0.74,-0.02 1.19,-0.05 0.44,-0.03 0.88,-0.08 1.33,-0.16 0.45,-0.07 0.88,-0.19 1.28,-0.34 0.42,-0.13 0.77,-0.31 1.06,-0.5 0.06,-0.04 0.14,-0.11 0.21,-0.18 0.08,-0.07 0.12,-0.16 0.13,-0.24 0,-0.09 -0.04,-0.17 -0.14,-0.26 -0.1,-0.08 -0.17,-0.14 -0.24,-0.19 -0.3,-0.2 -0.66,-0.35 -1.06,-0.49 -0.41,-0.13 -0.83,-0.23 -1.28,-0.32 -0.44,-0.08 -0.88,-0.13 -1.3,-0.16 -0.44,-0.03 -0.84,-0.04 -1.18,-0.05 -0.35,0 -0.73,0.02 -1.17,0.05 -0.44,0.03 -0.88,0.09 -1.31,0.16 -0.44,0.08 -0.87,0.18 -1.28,0.31 -0.41,0.13 -0.76,0.29 -1.06,0.5 -0.05,0.05 -0.14,0.1 -0.22,0.18 -0.1,0.09 -0.15,0.18 -0.15,0.27 0,0.08 0.03,0.17 0.1,0.24 0.09,0.07 0.16,0.14 0.23,0.18 0.29,0.2 0.64,0.37 1.04,0.5 0.41,0.15 0.85,0.26 1.31,0.33 0.45,0.08 0.89,0.14 1.33,0.17 0.43,0.04 0.82,0.05 1.18,0.05 z M 4.46,87.58 v -1.47 h 1.48 v 1.47 z m 2.97,0 v -1.47 h 1.48 v 1.47 z M 4.46,84.64 v -1.47 h 1.48 v 1.47 z m 0,-2.93 v -1.47 h 1.48 v 1.47 z m 2.97,2.93 v -1.47 h 1.48 v 1.47 z"
   class="st5"
   id="path84"
   inkscape:connector-curvature="0"
   style="fill:#000000;stroke:none;stroke-width:0.74999899;stroke-linecap:butt" />
							</g>
						</g>
					</g>
				</g>
			</g>
		</g>
	</g>
</svg>

<?xml version="1.0" encoding="UTF-8" standalone="no"?>
<!DOCTYPE svg PUBLIC "-//W3C//DTD SVG 1.1//EN" "http://www.w3.org/Graphics/SVG/1.1/DTD/svg11.dtd">
<!-- Generated by Microsoft Visio, SVG Export Azure Synapse Analytics Dedicated SQL Pool.svg Page-1 -->
<svg xmlns="http://www.w3.org/2000/svg" xmlns:xlink="http://www.w3.org/1999/xlink" xmlns:ev="http://www.w3.org/2001/xml-events"
		width="0.897638in" height="1.33858in" viewBox="0 0 64.6299 96.378" xml:space="preserve" color-interpolation-filters="sRGB"
		class="st6">
	<style type="text/css">
	<![CDATA[
		.st1 {fill:#0078d4;stroke:none;stroke-linecap:butt;stroke-width:0.749999}
		.st2 {fill:url(#grad0-12);stroke:none;stroke-linecap:butt;stroke-width:0.749999}
		.st3 {fill:#50e6ff;stroke:none;stroke-linecap:butt;stroke-width:0.749999}
		.st4 {fill:url(#grad0-20);stroke:none;stroke-linecap:butt;stroke-width:0.749999}
		.st5 {fill:#000000;stroke:none;stroke-linecap:butt;stroke-width:0.749999}
		.st6 {fill:none;fill-rule:evenodd;font-size:12px;overflow:visible;stroke-linecap:square;stroke-miterlimit:3}
	]]>
	</style>

	<defs id="Patterns_And_Gradients">
		<linearGradient id="grad0-12" x1="0" y1="0" x2="1" y2="0" gradientTransform="rotate(-90 0.5 0.5)">
			<stop offset="0.2" stop-color="#005ba1" stop-opacity="1"/>
			<stop offset="1" stop-color="#0078d4" stop-opacity="1"/>
		</linearGradient>
		<linearGradient id="grad0-20" x1="0" y1="0" x2="1" y2="0" gradientTransform="rotate(-90 0.5 0.5)">
			<stop offset="0" stop-color="#198ab3" stop-opacity="1"/>
			<stop offset="0.17" stop-color="#32bedd" stop-opacity="1"/>
			<stop offset="0.5" stop-color="#50e6ff" stop-opacity="1"/>
			<stop offset="0.5" stop-color="#4fe4fd" stop-opacity="1"/>
			<stop offset="0.5" stop-color="#4bddf8" stop-opacity="1"/>
			<stop offset="0.5" stop-color="#44d2ee" stop-opacity="1"/>
			<stop offset="0.5" stop-color="#3ac1e0" stop-opacity="1"/>
			<stop offset="0.5" stop-color="#2dabce" stop-opacity="1"/>
			<stop offset="0.5" stop-color="#1d90b8" stop-opacity="1"/>
			<stop offset="0.5" stop-color="#198ab3" stop-opacity="1"/>
			<stop offset="0.66" stop-color="#32bedd" stop-opacity="1"/>
			<stop offset="0.975" stop-color="#50e6ff" stop-opacity="1"/>
		</linearGradient>
	</defs>
	<g>
		<title>Page-1</title>
		<g id="group19158-1" transform="translate(5.38583,-34.0157)">
			<title>Azure Synapse Analytics Dedicated SQL Pool.19158</title>
			<g id="group19159-2">
				<title>Page-1</title>
				<g id="group19160-3">
					<title>Sheet.19160</title>
					<g id="group19161-4" transform="translate(-2.67786E-13,-11.5278)">
						<title>Sheet.19161</title>
						<g id="group19162-5">
							<title>Sheet.19162</title>
							<g id="shape19163-6">
								<title>Sheet.19163</title>
								<path d="M19.94 51.22 L0 62.48 L0 84.98 L19.94 96.38 L39.89 85.11 L39.89 62.53 L19.94 51.22 ZM36.19
											 82.75 L19.94 92.04 L3.68 82.86 L3.68 64.72 L19.94 55.43 L36.19 64.74 L36.19 82.75 Z"
										class="st1"/>
							</g>
						</g>
						<g id="group19164-8" transform="translate(0,-31.6642)">
							<title>Sheet.19164</title>
							<g id="shape19165-9">
								<title>Sheet.19165</title>
								<path d="M19.94 82.88 L0 94.14 L3.68 96.38 L19.94 87.09 L36.19 96.38 L39.89 94.14 L19.94 82.88 Z"
										class="st2"/>
							</g>
						</g>
						<g id="group19166-13" transform="translate(6.25658,-5.64284)">
							<title>Sheet.19166</title>
							<g id="shape19167-14">
								<title>Sheet.19167</title>
								<path d="M23.19 83.14 A1.85437 1.83161 -180 0 0 22.37 82.42 A14.8222 14.6402 -180 0 0 10.99 74.02
											 L27.44 64.63 L23.61 62.47 L4.88 73.17 A1.90517 1.88178 -180 0 0 5.84 76.68 A1.73752
											 1.71619 -180 0 0 6.06 76.62 L6.38 77.93 A10.9713 10.8366 0 0 1 18.67 83.55 L0 94.21
											 L3.81 96.38 L22.49 85.71 A1.85183 1.8291 -180 0 0 23.1 85.12 L23.29 85.07 C23.27 85.01
											 23.25 84.93 23.23 84.86 A1.86707 1.84415 -180 0 0 23.19 83.14 Z" class="st3"/>
							</g>
						</g>
						<g id="group19168-16" transform="translate(8.76765,-14.6265)">
							<title>Sheet.19168</title>
							<g id="shape19169-17">
								<title>Sheet.19169</title>
								<path d="M19.02 88.45 A4.69941 4.64173 -180 1 0 23.73 93.1 A4.69941 4.64173 -180 0 0 19.02 88.45
											 ZM3.32 79.05 A4.69941 4.64173 -180 1 0 8.02 83.7 A4.69941 4.64173 -180 0 0 3.32 79.05
											 Z" class="st4"/>
							</g>
						</g>
					</g>
					<g id="group19170-21" transform="translate(30.0954,0)">
						<title>Sheet.19170</title>
						<g id="group19171-22">
							<title>Sheet.19171</title>
							<g id="shape19172-23">
								<title>Sheet.19172</title>
								<path d="M16.34 81.71 C16.45 81.7 16.57 81.7 16.68 81.7 C16.78 81.7 16.9 81.7 17.02 81.7 C17.31 81.7
											 17.67 81.71 18.12 81.74 C18.56 81.77 19.03 81.82 19.53 81.9 C20.03 81.98 20.53 82.09
											 21.04 82.23 C21.54 82.38 21.99 82.56 22.4 82.77 C22.79 82.98 23.12 83.25 23.38 83.56
											 C23.63 83.88 23.76 84.24 23.76 84.64 L23.76 93.45 C23.76 93.85 23.65 94.2 23.39 94.5
											 C23.14 94.8 22.82 95.06 22.42 95.28 C22.01 95.5 21.56 95.68 21.07 95.82 C20.57 95.96
											 20.08 96.07 19.58 96.16 C19.07 96.25 18.61 96.3 18.17 96.34 C17.73 96.36 17.37 96.37
											 17.08 96.38 C16.8 96.38 16.43 96.36 15.99 96.34 C15.55 96.3 15.08 96.24 14.59 96.16
											 C14.1 96.07 13.59 95.97 13.1 95.83 C12.6 95.69 12.15 95.51 11.76 95.29 C11.35 95.07
											 11.02 94.81 10.78 94.51 C10.53 94.21 10.4 93.86 10.39 93.45 L10.39 84.64 C10.39 84.31
											 10.47 84.02 10.62 83.76 C10.77 83.5 10.96 83.28 11.2 83.08 C11.46 82.89 11.74 82.72
											 12.05 82.58 C12.36 82.43 12.68 82.32 13.01 82.22 C13.34 82.13 13.67 82.05 13.98 81.99
											 C14.3 81.93 14.59 81.89 14.85 81.85 L14.85 78.78 L2.97 78.78 L2.97 87.58 L1.48 87.58
											 L1.48 78.78 L0 78.78 L0 77.3 L8.91 72.91 L17.82 77.3 L17.82 78.78 L16.34 78.78 L16.34
											 81.71 ZM3.28 77.3 L14.55 77.3 L8.91 74.52 L3.28 77.3 ZM22.28 93.45 L22.28 86.56 C21.91
											 86.76 21.5 86.91 21.07 87.05 C20.64 87.18 20.2 87.28 19.75 87.37 C19.3 87.45 18.84 87.5
											 18.4 87.52 C17.94 87.56 17.5 87.57 17.08 87.58 C16.67 87.58 16.23 87.56 15.77 87.52
											 C15.31 87.5 14.86 87.44 14.42 87.37 C13.97 87.29 13.52 87.19 13.09 87.06 C12.66 86.93
											 12.25 86.77 11.89 86.56 L11.89 93.45 C11.89 93.53 11.92 93.61 11.99 93.68 C12.08 93.76
											 12.15 93.82 12.22 93.86 C12.51 94.06 12.86 94.24 13.26 94.38 C13.67 94.51 14.11 94.62
											 14.57 94.69 C15.02 94.77 15.46 94.83 15.9 94.86 C16.33 94.9 16.72 94.91 17.08 94.91
											 C17.42 94.91 17.82 94.89 18.27 94.86 C18.71 94.83 19.15 94.78 19.6 94.7 C20.05 94.63
											 20.48 94.51 20.88 94.38 C21.3 94.23 21.65 94.06 21.94 93.86 C22 93.82 22.08 93.76 22.15
											 93.68 C22.23 93.61 22.27 93.53 22.28 93.45 ZM17.08 86.11 C17.42 86.11 17.82 86.09 18.27
											 86.06 C18.71 86.03 19.15 85.98 19.6 85.9 C20.05 85.83 20.48 85.71 20.88 85.56 C21.3
											 85.43 21.65 85.25 21.94 85.06 C22 85.02 22.08 84.95 22.15 84.88 C22.23 84.81 22.27 84.72
											 22.28 84.64 C22.28 84.55 22.24 84.47 22.14 84.38 C22.04 84.3 21.97 84.24 21.9 84.19
											 C21.6 83.99 21.24 83.84 20.84 83.7 C20.43 83.57 20.01 83.47 19.56 83.38 C19.12 83.3
											 18.68 83.25 18.26 83.22 C17.82 83.19 17.42 83.18 17.08 83.17 C16.73 83.17 16.35 83.19
											 15.91 83.22 C15.47 83.25 15.03 83.31 14.6 83.38 C14.16 83.46 13.73 83.56 13.32 83.69
											 C12.91 83.82 12.56 83.98 12.26 84.19 C12.21 84.24 12.12 84.29 12.04 84.37 C11.94 84.46
											 11.89 84.55 11.89 84.64 C11.89 84.72 11.92 84.81 11.99 84.88 C12.08 84.95 12.15 85.02
											 12.22 85.06 C12.51 85.26 12.86 85.43 13.26 85.56 C13.67 85.71 14.11 85.82 14.57 85.89
											 C15.02 85.97 15.46 86.03 15.9 86.06 C16.33 86.1 16.72 86.11 17.08 86.11 ZM4.46 87.58
											 L4.46 86.11 L5.94 86.11 L5.94 87.58 L4.46 87.58 ZM7.43 87.58 L7.43 86.11 L8.91 86.11
											 L8.91 87.58 L7.43 87.58 ZM4.46 84.64 L4.46 83.17 L5.94 83.17 L5.94 84.64 L4.46 84.64
											 ZM4.46 81.71 L4.46 80.24 L5.94 80.24 L5.94 81.71 L4.46 81.71 ZM7.43 84.64 L7.43 83.17
											 L8.91 83.17 L8.91 84.64 L7.43 84.64 Z" class="st5"/>
							</g>
						</g>
					</g>
				</g>
			</g>
		</g>
	</g>
</svg>
